X: 37528
T: Slippy Wet, The
R: slip jig
M: 9/8
K: Gmajor
|:GFG Bdg b2 D|GFG Bde edB|
ABA cBA gfe|1 efg fed cBA:|2 efd cBA GFE||
|:CEG GEc cBA|B,DG GAB BAG|
[1 Bcd edc efg|fed cBA GFE:|2 Bcd edc BAG|efg fed cBA||

